!!!COM: Bach, Johann Sebastian
!!!OTL@@DE: 335. Es ist das Heil uns kommen her
!!!OTL@EN: Salvation has come to us
!!!SCA: BWV 155.5
**kern	**kern	**kern	**kern
*staff2	*staff2	*staff1	*staff1
*Iorgan	*Iorgan	*Iorgan	*Iorgan
*>[A,A,B]	*>[A,A,B]	*>[A,A,B]	*>[A,A,B]
*>norep[A,B]	*>norep[A,B]	*>norep[A,B]	*>norep[A,B]
*>A	*>A	*>A	*>A
!bass	!tenor	!alto	!sprno
*clefF4	*clefF4	*clefG2	*clefG2
*k[b-]	*k[b-]	*k[b-]	*k[b-]
*met(C)	*met(C)	*met(C)	*met(C)
*M4/4	*M4/4	*M4/4	*M4/4
*MM80	*MM80	*MM80	*MM80
4F\	8A/L	4f\	4cc/
.	8B-/J	.	.
=1	=1	=1	=1
8AA\L	8c/L	4f\	4cc/
8BB-\J	8d/J	.	.
4C\	8c/L	4e\	4cc/
.	8B-/J	.	.
4FF\	4A/	4f\	8cc/L
.	.	.	8dd/J
4C\	8G/L	4g\	4ee-/
.	8A/J	.	.
=2	=2	=2	=2
8D\L	4B-/	4f\	4dd/
8E-\J	.	.	.
4F\	4A/	8f\L	4cc/
.	.	8e-\J	.
4G;\	4B-;/	4d;\	4b-;/
4En\	4G/	4c\	8cc/L
.	.	.	8b-/J
=3	=3	=3	=3
4F\	8F/L	4c\	8a/L
.	8G/J	.	8g/J
4FF\	8A/L	4c\	8f/L
.	8B-/J	.	8g/J
8F\L	4c/	8f\L	4a/
8E\J	.	8a\J	.
4D\	4d/	8g\L	4bn/
.	.	8f\J	.
=4	=4	=4	=4
4C\	8G/	8.e\L	8.cc/L
.	4c/	.	.
.	.	16f\Jk	16dd/Jk
4GG\	.	8.g\L	4dd/
.	8Bn/	.	.
.	.	16f\Jk	.
4C;\	4c;/	4e;\	4cc;/
=:|!	=:|!	=:|!	=:|!
*>B	*>B	*>B	*>B
!!linebreak: 2
8F\L	4A/	8f\L	4cc/
8E\J	.	8g\J	.
=5	=5	=5	=5
4D\	8A/L	4a\	4ff/
.	8Bn/J	.	.
(8E\L	4c/	4g\	4ee/
8F\J)	.	.	.
4G\	8Bn/L	8g\L	4dd/
.	8A/J	8f\J	.
8C\L	4G/	8e\L	4ee/
8BB-\J	.	8g\J	.
=6	=6	=6	=6
8AA\L	8F/L	8c\L	8ff/L
8FF\J	8c/J	8a\J	8ee/J
4GG\	4Bn/	8d\L	4dd/
.	.	8g\J	.
4C;\	4c;/	4e;\	4cc;/
4F\	8A/L	8f\L	4cc/
.	8B-/J	8g\J	.
=7	=7	=7	=7
8FF\L	4c/	8a\L	4ff/
8GG\J	.	8b-\J	.
4AA\	8f/L	8a\L	4cc/
.	8e/J	8g\J	.
8BB-\L	4d/	4f\	4dd/
8C\J	.	.	.
4D\	4d/	4f\	8a/L
.	.	.	8b-/J
=8	=8	=8	=8
8E\L	8G/L	4e\	4cc/
8F#\J	8A/J	.	.
4G\	8B-/L	8d\L	4b-/
.	8c/J	8e\J	.
4D;\	4d;/	4f#;\	4a;/
8AA\L	4c/	4fn\	4a/
8BB-\J	.	.	.
=9	=9	=9	=9
4C\	4c/	4e\	8g/L
.	.	.	8a/J
8D\L	8F/L	4d\	4b-/
8E\J	8G/J	.	.
4F\	8A/L	8c\L	4a/
.	8B-/J	8d\J	.
8E\L	4c/	4e\	4g/
8F\J	.	.	.
=10	=10	=10	=10
4G\	8B-/L	4d\	4d/
.	8A/J	.	.
4C\	4G/	8c\L	4e/
.	.	8B-\J	.
4FF;\	4F;/	4A;\	4f;/
==	==	==	==
*-	*-	*-	*-
!!!ENC: Craig Stuart Sapp
!!!END: 2004/12/06/
!!chor2scor: -l 2 -s 0.6 -o %b.pmx
